X:1
T:Title
%%score { 1 | 2 }
L:1/8
M:3/4
K:Bb
V:1 treble nm="Grand Piano"
V:2 bass 
V:1
 z2 z2[Q:1/4=100] [DF]>[EG] | [DF]3 [F,B,D] [B,DF][DFB] | B2 A2 AB | c3 c BA |[M:2/4] [DB]4 | %5
[M:1/4] [DF]>[EG] |[M:3/4] [DF]3 [F,B,D] [B,DF][DFB] | [Fd]2 [Fc]2 [CFc][DFB] | %8
 [CFA]3 [Fc] [=EB][EG] |[M:2/4] F4 |[M:1/4] F>F |[M:3/4] c3 c BA | [DB]2 [DF]2 [FB]c | %13
 d3 B c[=Ed] |[M:2/4] c4 |[M:1/4] d>e |[M:3/4] [Fd]3 [Ec] [DB][DF] | G2 B2 AG | F3 B FE | %19
[M:2/4] D4 |[M:1/4] [DF]>[EG] |[M:3/4] [DF]3 [DB] [Fd][^Fc] | [GB]2 [EG]2 [Ge][CGc] | %23
 [DFB]3 [FBd] [EAc]>[DFB][Q:1/4=98][Q:1/4=97][Q:1/4=95][Q:1/4=94][Q:1/4=92][Q:1/4=91][Q:1/4=89][Q:1/4=88][Q:1/4=86][Q:1/4=84][Q:1/4=83][Q:1/4=81][Q:1/4=80][Q:1/4=78][Q:1/4=77] | %24
[M:2/4] [DFB]4 |] %25
V:2
 z2 z2 [B,,B,]>[B,,B,] | [B,,B,]3 B,, B,,B,, | [F,DF]2 [F,CF]2 [F,CF][F,DF] | %3
 [F,EF]3 [F,EF] [F,DF][F,CE] |[M:2/4] [B,,B,]4 |[M:1/4] [B,,B,]>[B,,B,] | %6
[M:3/4] [B,,B,]3 B,, B,,B,, | [F,B,]2 [F,A,]2 A,,B,, | C,3 [C,A,] [C,G,][C,B,] |[M:2/4] [F,A,]4 | %10
[M:1/4] [F,A,]>[F,A,] |[M:3/4] [F,A,F]3 [F,EF] [F,DF][F,CE] | %12
 [B,,B,]2 [B,,B,]2 [D,B,][K:treble][F,A,F] | [B,F]3 [B,DF][K:bass] [G,C=E][C,B,] | %14
[M:2/4] [F,A,F]4 |[M:1/4] [F,B,F]>[F,CF] |[M:3/4] [B,,B,]3 [B,,B,] [B,,F,][B,,B,] | %17
 [E,B,E]2 [E,G,E]2 [=E,A,_D][E,B,D] | [F,B,D]3 [F,DF] [F,B,D][D,C] |[M:2/4] [B,,F,B,]4 | %20
[M:1/4] [B,,B,]>[B,,B,] |[M:3/4] [B,,B,]3 [B,,B,] [B,,B,][D,B,] | [E,B,]2 [E,B,]2 [C,C]E, | %23
 F,3 F, F,>F, |[M:2/4] B,,4 |] %25

